symbols/web/local_hospital/materialsymbolssharp/local_hospital_wght300gradN25fill1_48px.svg

<svg xmlns="http://www.w3.org/2000/svg" height="48" width="48"><path d="M22.4 33.45h3.25V25.6h7.8v-3.25h-7.8v-7.8H22.4v7.8h-7.85v3.25h7.85Zm-15.25 7.4V7.15h33.7v33.7Z"/></svg>

<svg xmlns="http://www.w3.org/2000/svg" height="48" width="48"><path d="M22.4 33.45H25.65V25.6H33.45V22.35H25.65V14.55H22.4V22.35H14.55V25.6H22.4ZM7.15 40.85V7.15H40.85V40.85Z"/></svg>
